tools/download-figma-icons/icons/solid/semi-detached-house-alternative.svg

<svg width="25" height="24" viewBox="0 0 25 24" fill="none" xmlns="http://www.w3.org/2000/svg">
<path fill-rule="evenodd" clip-rule="evenodd" d="M0.203874 11.538C-0.0811265 11.2326 -0.0661265 10.7515 0.241374 10.4613L11.2514 0V24H9.00137V17.1199C9.00137 16.7 8.66387 16.3563 8.25137 16.3563H4.50137C4.08887 16.3563 3.75137 16.7 3.75137 17.1199V24H2.25137C1.83887 24 1.50137 23.6564 1.50137 23.2364V11.3548L1.26137 11.5762C0.961374 11.8664 0.488874 11.8511 0.203874 11.538ZM8.25137 14.8368C8.66387 14.8368 9.00137 14.4932 9.00137 14.0732V11.0188C9.00137 10.5988 8.66387 10.2552 8.25137 10.2552H4.50137C4.08887 10.2552 3.75137 10.5988 3.75137 11.0188V14.0732C3.75137 14.4932 4.08887 14.8368 4.50137 14.8368H8.25137ZM12.7514 0L23.7614 10.4613C24.0689 10.7515 24.0839 11.2326 23.7989 11.538C23.6489 11.6984 23.4539 11.7824 23.2514 11.7824C23.0714 11.7824 22.8839 11.7136 22.7414 11.5762L22.5014 11.3548V23.2364C22.5014 23.6564 22.1639 24 21.7514 24H20.2514V17.1199C20.2514 16.7 19.9139 16.3563 19.5014 16.3563H15.7514C15.3389 16.3563 15.0014 16.7 15.0014 17.1199V24H12.7514V0ZM19.5014 14.8368C19.9139 14.8368 20.2514 14.4932 20.2514 14.0732V11.0188C20.2514 10.5988 19.9139 10.2552 19.5014 10.2552H15.7514C15.3389 10.2552 15.0014 10.5988 15.0014 11.0188V14.0732C15.0014 14.4932 15.3389 14.8368 15.7514 14.8368H19.5014Z" fill="black"/>
</svg>

<svg width="25" height="24" viewBox="0 0 25 24" fill="none" xmlns="http://www.w3.org/2000/svg"><path fill-rule="evenodd" clip-rule="evenodd" d="M.204 11.538a.764.764 0 0 1 .037-1.077L11.251 0v24h-2.25v-6.88a.76.76 0 0 0-.75-.764h-3.75a.76.76 0 0 0-.75.764V24h-1.5a.76.76 0 0 1-.75-.764V11.355l-.24.221a.732.732 0 0 1-1.057-.038Zm8.047 3.299a.76.76 0 0 0 .75-.764V11.02a.76.76 0 0 0-.75-.764h-3.75a.76.76 0 0 0-.75.764v3.054c0 .42.338.764.75.764h3.75ZM12.751 0l11.01 10.461a.764.764 0 0 1-.51 1.321.74.74 0 0 1-.51-.206l-.24-.221v11.881a.76.76 0 0 1-.75.764h-1.5v-6.88a.76.76 0 0 0-.75-.764h-3.75a.76.76 0 0 0-.75.764V24h-2.25V0Zm6.75 14.837a.76.76 0 0 0 .75-.764V11.02a.76.76 0 0 0-.75-.764h-3.75a.76.76 0 0 0-.75.764v3.054c0 .42.338.764.75.764h3.75Z" fill="currentColor"/></svg>
